X: 7
T: The Rakes Of Clonmel
R: jig
M: 6/8
L: 1/8
K: Ador
E|ABA GFG|EAA A2B|cBc Adc|BGG G2f|
gfe dBG|GAG Bcd|efe Ace|dBG A2:|
|:e|a2a aga|ecA A2f|gag gfe|dBG GAB|
c2c E2E|d2d E2E|efe Ace|dBG A2:|
|:c/d/|ecc A2c|ecc A2B/c/|dBB GBB|dBB GAB|
c2c E2E|d2d E2E|efe Ace|dBG A2:|]


Tune 1130	Setting 21430

